icons/svgs/arrow-right-solid.svg

<svg width="24" height="24" viewBox="0 0 24 24" fill="none" xmlns="http://www.w3.org/2000/svg">
<path d="M20.3594 12.8984L14.1094 19.1484C13.6406 19.6562 12.8203 19.6562 12.3516 19.1484C11.8438 18.6797 11.8438 17.8594 12.3516 17.3906L16.4531 13.25H4.5C3.79688 13.25 3.25 12.7031 3.25 12C3.25 11.3359 3.79688 10.75 4.5 10.75H16.4531L12.3516 6.64844C11.8438 6.17969 11.8438 5.35938 12.3516 4.89062C12.8203 4.38281 13.6406 4.38281 14.1094 4.89062L20.3594 11.1406C20.8672 11.6094 20.8672 12.4297 20.3594 12.8984Z" fill="black"/>
</svg>

<svg xmlns="http://www.w3.org/2000/svg" width="24" height="24" fill="currentColor" class="icon-arrow-right-solid" viewBox="0 0 24 24">
  <mask id="a" width="18" height="16" x="3" y="4" maskUnits="userSpaceOnUse" style="mask-type:alpha">
    <path d="m20.36 12.898-6.25 6.25a1.205 1.205 0 0 1-1.758 0 1.205 1.205 0 0 1 0-1.757l4.101-4.141H4.5c-.703 0-1.25-.547-1.25-1.25 0-.664.547-1.25 1.25-1.25h11.953l-4.101-4.102a1.205 1.205 0 0 1 0-1.757 1.205 1.205 0 0 1 1.757 0l6.25 6.25a1.203 1.203 0 0 1 0 1.757"/>
  </mask>
  <g mask="url(#a)">
    <path d="M0 0h24v24H0z"/>
  </g>
</svg>
